X:477
T: "Gedenke mein"
N: Z1157
O: Europa, Mitteleuropa, Deutschland
R: Liebes - Lied, Abschieds - Lied
M: 4/4
L: 1/16
K: F
c4 | f4c4c2B2A2G2 | F6G2A4
A4 | A4G4c2B2A2G2 | F8z4
F2G2 | A4A4G4G4 | G6ABc4
c2B2 | A4A4G4G4 | G6ABc4
c2B2 | A4A4c2B2G4 | F8z4

@@@ Tune index: 10235
